X: 19684
T: Jenny Come Down To Jock
R: jig
M: 6/8
K: Gmajor
D|G2G ABd|edB A2B|G2G ABd|e^de E2:|
e|gfe agf|gfe def|gfe agf|gab e2f|
gfe agf|gfe def|gab|dBG|A2BE3||
e2e dBG|BAG ABd|e2e dBG|BAG E3|
e2e dBG|BAG ABd|efg dBG|A2BE2||

